X:270
T:Harper's Fancy
B:Aird's Airs and Melodies vol 3
L:1/8
M:2/4
Z:Richard Robinson 
%%TUNEURL: http://www.leeds.ac.uk/music/Info/RRTuneBk/gettune/000001c6.html
%%ID:000001c6
K:D
|:A|\
FA DA| FA Dd| cd ef| d/c/d/e/ dA/G/|\
FA DA| FA Dd| cd f/e/d/c/| d2D||
d/e/|\
f(d d)e/f/| g(e e)f/g/| f(d d)f| e/d/c/B/ A(d/e/)|\
f(d d)(f/g/)| g(e e)(f/g/)| fd f/e/d/c/| d2D:|
